icons/svg/barrier/border_control.svg

<?xml version="1.0" encoding="UTF-8" standalone="no"?>
<!-- Created with Inkscape (http://www.inkscape.org/) -->

<svg
   xmlns:dc="http://purl.org/dc/elements/1.1/"
   xmlns:cc="http://creativecommons.org/ns#"
   xmlns:rdf="http://www.w3.org/1999/02/22-rdf-syntax-ns#"
   xmlns:svg="http://www.w3.org/2000/svg"
   xmlns="http://www.w3.org/2000/svg"
   xmlns:sodipodi="http://sodipodi.sourceforge.net/DTD/sodipodi-0.dtd"
   xmlns:inkscape="http://www.inkscape.org/namespaces/inkscape"
   version="1.0"
   width="580"
   height="580"
   id="svg2"
   sodipodi:version="0.32"
   inkscape:version="0.48.4 r9939"
   sodipodi:docname="bump_gate.svg"
   inkscape:output_extension="org.inkscape.output.svg.inkscape">
  <defs
     id="defs22">
    <inkscape:perspective
       sodipodi:type="inkscape:persp3d"
       inkscape:vp_x="0 : 290 : 1"
       inkscape:vp_y="0 : 1000 : 0"
       inkscape:vp_z="580 : 290 : 1"
       inkscape:persp3d-origin="290 : 193.33333 : 1"
       id="perspective24" />
    <marker
       viewBox="0 0 10 10"
       refY="5"
       refX="10"
       orient="auto"
       markerWidth="4"
       markerUnits="strokeWidth"
       markerHeight="3"
       id="ArrowStart">
      <path
         id="path3568"
         d="M 10 0 L 0 5 L 10 10 z" />
    </marker>
    <marker
       viewBox="0 0 10 10"
       refY="5"
       refX="0"
       orient="auto"
       markerWidth="4"
       markerUnits="strokeWidth"
       markerHeight="3"
       id="ArrowEnd">
      <path
         id="path3565"
         d="M 0 0 L 10 5 L 0 10 z" />
    </marker>
    <inkscape:perspective
       id="perspective2683"
       inkscape:persp3d-origin="306.082 : 204.39034 : 1"
       inkscape:vp_z="612.164 : 306.58551 : 1"
       inkscape:vp_y="0 : 1000 : 0"
       inkscape:vp_x="0 : 306.58551 : 1"
       sodipodi:type="inkscape:persp3d" />
    <marker
       viewBox="0 0 10 10"
       refY="5"
       refX="10"
       orient="auto"
       markerWidth="4"
       markerUnits="strokeWidth"
       markerHeight="3"
       id="marker2959">
      <path
         id="path2626"
         d="M 10 0 L 0 5 L 10 10 z" />
    </marker>
    <marker
       viewBox="0 0 10 10"
       refY="5"
       refX="0"
       orient="auto"
       markerWidth="4"
       markerUnits="strokeWidth"
       markerHeight="3"
       id="marker2956">
      <path
         id="path2623"
         d="M 0 0 L 10 5 L 0 10 z" />
    </marker>
    <inkscape:perspective
       id="perspective2953"
       inkscape:persp3d-origin="306.082 : 204.39034 : 1"
       inkscape:vp_z="612.164 : 306.58551 : 1"
       inkscape:vp_y="0 : 1000 : 0"
       inkscape:vp_x="0 : 306.58551 : 1"
       sodipodi:type="inkscape:persp3d" />
    <marker
       viewBox="0 0 10 10"
       refY="5"
       refX="10"
       orient="auto"
       markerWidth="4"
       markerUnits="strokeWidth"
       markerHeight="3"
       id="marker3077">
      <path
         id="path3298"
         d="M 10 0 L 0 5 L 10 10 z" />
    </marker>
    <marker
       viewBox="0 0 10 10"
       refY="5"
       refX="0"
       orient="auto"
       markerWidth="4"
       markerUnits="strokeWidth"
       markerHeight="3"
       id="marker3074">
      <path
         id="path3295"
         d="M 0 0 L 10 5 L 0 10 z" />
    </marker>
    <inkscape:perspective
       id="perspective3071"
       inkscape:persp3d-origin="180.936 : 163.92867 : 1"
       inkscape:vp_z="361.87201 : 245.89301 : 1"
       inkscape:vp_y="0 : 1000 : 0"
       inkscape:vp_x="0 : 245.89301 : 1"
       sodipodi:type="inkscape:persp3d" />
    <inkscape:perspective
       id="perspective3724"
       inkscape:persp3d-origin="0.5 : 0.33333333 : 1"
       inkscape:vp_z="1 : 0.5 : 1"
       inkscape:vp_y="0 : 1000 : 0"
       inkscape:vp_x="0 : 0.5 : 1"
       sodipodi:type="inkscape:persp3d" />
    <inkscape:perspective
       id="perspective2861"
       inkscape:persp3d-origin="0.5 : 0.33333333 : 1"
       inkscape:vp_z="1 : 0.5 : 1"
       inkscape:vp_y="0 : 1000 : 0"
       inkscape:vp_x="0 : 0.5 : 1"
       sodipodi:type="inkscape:persp3d" />
    <inkscape:perspective
       id="perspective2848"
       inkscape:persp3d-origin="0.5 : 0.33333333 : 1"
       inkscape:vp_z="1 : 0.5 : 1"
       inkscape:vp_y="0 : 1000 : 0"
       inkscape:vp_x="0 : 0.5 : 1"
       sodipodi:type="inkscape:persp3d" />
    <inkscape:perspective
       id="perspective2861-7"
       inkscape:persp3d-origin="0.5 : 0.33333333 : 1"
       inkscape:vp_z="1 : 0.5 : 1"
       inkscape:vp_y="0 : 1000 : 0"
       inkscape:vp_x="0 : 0.5 : 1"
       sodipodi:type="inkscape:persp3d" />
    <inkscape:perspective
       id="perspective2844"
       inkscape:persp3d-origin="0.5 : 0.33333333 : 1"
       inkscape:vp_z="1 : 0.5 : 1"
       inkscape:vp_y="0 : 1000 : 0"
       inkscape:vp_x="0 : 0.5 : 1"
       sodipodi:type="inkscape:persp3d" />
  </defs>
  <metadata
     id="metadata10">
    <rdf:RDF>
      <cc:Work
         rdf:about="">
        <dc:format>image/svg+xml</dc:format>
        <dc:type
           rdf:resource="http://purl.org/dc/dcmitype/StillImage" />
        <cc:license
           rdf:resource="http://web.resource.org/cc/PublicDomain" />
        <dc:language>en</dc:language>
        <dc:title></dc:title>
      </cc:Work>
    </rdf:RDF>
  </metadata>
  <sodipodi:namedview
     inkscape:window-height="1004"
     inkscape:window-width="1920"
     inkscape:pageshadow="2"
     inkscape:pageopacity="0.0"
     guidetolerance="10.0"
     gridtolerance="10.0"
     objecttolerance="10.0"
     borderopacity="1.0"
     bordercolor="#666666"
     pagecolor="#ffffff"
     id="base"
     showgrid="false"
     inkscape:zoom="0.70710678"
     inkscape:cx="272.11905"
     inkscape:cy="303.99551"
     inkscape:window-x="1680"
     inkscape:window-y="0"
     inkscape:current-layer="svg2"
     inkscape:window-maximized="1" />
  <g
     id="g1327">
    <path
       d="M 66.275,1.768 C 24.94,1.768 1.704,23.139 1.704,66.804 L 1.704,516.927 C 1.704,557.771 22.598,579.156 63.896,579.156 L 515.92,579.156 C 557.227,579.156 578.149,558.84 578.149,516.927 L 578.149,66.804 C 578.149,24.203 557.227,1.768 514.627,1.768 C 514.624,1.768 66.133,1.625 66.275,1.768 z"
       style="fill:#111111;stroke:#eeeeee;stroke-width:3.40799999"
       id="path1329" />
  </g>
  <g
     id="g2319"
     transform="translate(879.29125,36.805119)">
    <path
       id="path2323"
       style="fill:#ffffff;stroke:none"
       d="" />
  </g>
  <g
     id="g2325"
     transform="translate(879.29125,36.805119)">
    <path
       id="path2329"
       style="fill:#ffffff;stroke:none"
       d="" />
  </g>
  <path
     inkscape:connector-curvature="0"
     d="M 493.5964,160.23076 H 313.77333 c -5.56154,0 -7.41539,-5.56154 -3.70769,-9.26923 l 27.80769,-27.80769 H 493.5964 v 37.07692 z"
     id="path3"
     style="fill:#ffffff;fill-opacity:1" />
  <path
     inkscape:connector-curvature="0"
     d="m 493.5964,76.807686 c 0,-5.561538 -3.70769,-9.26923 -7.41538,-9.26923 L 319.33487,48.999994 c -7.41539,0 -12.97693,7.415385 -9.26923,14.830769 l 35.22307,40.784617 H 493.5964 V 76.807686 z"
     id="path5"
     style="fill:#ffffff;fill-opacity:1" />
  <path
     inkscape:connector-curvature="0"
     d="m 356.41179,123.15384 c -7.41539,11.12307 -11.12308,24.1 -11.12308,37.07692 0,40.78461 33.36923,74.15385 74.15385,74.15385 40.78461,0 74.15384,-33.36924 74.15384,-74.15385 0,-12.97692 -3.70769,-25.95385 -11.12307,-37.07692 H 356.41179 z"
     id="path7"
     style="fill:#ffffff;fill-opacity:1" />
  <path
     inkscape:connector-curvature="0"
     d="m 185.85794,327.07691 -96.399999,0 c -5.56154,0 -9.26923,-1.85384 -11.12307,-7.41538 l -27.8077,-144.6 c -1.85384,-7.41539 0,-12.97693 5.56154,-14.83077 l 96.399999,0 c 5.56154,0 9.26923,1.85384 11.12308,7.41538 l 29.66154,148.3077 c 1.85384,5.56153 -1.85385,9.26923 -7.41539,11.12307 z"
     id="path9"
     style="fill:#ffffff;fill-opacity:1" />
  <path
     style="fill:none;stroke:#ffffff;stroke-width:18.53846169;stroke-linecap:round;stroke-linejoin:round;stroke-miterlimit:10;stroke-opacity:1"
     inkscape:connector-curvature="0"
     stroke-miterlimit="10"
     d="m 59.796401,175.06153 c -3.70769,-11.12308 1.85385,-12.97693 7.41539,-14.83077 L 169.17333,113.8846 c 5.56154,0 9.26923,1.85385 11.12307,7.41539 l 29.66154,148.30769"
     id="path11" />
  <g
     transform="matrix(18.538462,0,0,18.538462,48.673331,48.999994)"
     id="g13"
     style="fill:#ffffff;fill-opacity:1">
    <path
       inkscape:connector-curvature="0"
       d="M 13,24.3 22.2,12 h -5.8 c -0.9,0 -1.8,0.3 -2.5,1 L 9.1,17.3 7.8,16 H 2.2 l 5.4,5.4 C 8,21.8 8.5,22 9,22 9.5,22 9.9,21.8 10.3,21.5 L 13,19.2 v 5.1 z"
       id="path15"
       style="fill:#ffffff;fill-opacity:1" />
    <path
       inkscape:connector-curvature="0"
       d="M 24.8,12.6 14.8,26 H 26 V 15 c 0,-1 -0.5,-1.8 -1.2,-2.4 z"
       id="path17"
       style="fill:#ffffff;fill-opacity:1" />
  </g>
</svg>

<svg width="580" height="580" viewBox="0 0 580 580" fill="none" xmlns="http://www.w3.org/2000/svg">
<g clip-path="url(#clip0)">
<path d="M66.275 1.76799C24.94 1.76799 1.70398 23.139 1.70398 66.804V516.927C1.70398 557.771 22.598 579.156 63.896 579.156H515.92C557.227 579.156 578.149 558.84 578.149 516.927V66.804C578.149 24.203 557.227 1.76799 514.627 1.76799C514.624 1.76799 66.133 1.62499 66.275 1.76799Z" fill="#111111" stroke="#EEEEEE" stroke-width="3.408"/>
<path d="M493.596 160.231H313.773C308.212 160.231 306.358 154.669 310.066 150.962L337.873 123.154H493.596V160.231Z" fill="white"/>
<path d="M493.596 76.8077C493.596 71.2462 489.889 67.5385 486.181 67.5385L319.335 49C311.919 49 306.358 56.4154 310.066 63.8308L345.289 104.615H493.596V76.8077Z" fill="white"/>
<path d="M356.412 123.154C348.996 134.277 345.289 147.254 345.289 160.231C345.289 201.015 378.658 234.385 419.443 234.385C460.227 234.385 493.596 201.015 493.596 160.231C493.596 147.254 489.889 134.277 482.473 123.154H356.412Z" fill="white"/>
<path d="M185.858 327.077H89.4579C83.8964 327.077 80.1887 325.223 78.3349 319.662L50.5272 175.062C48.6733 167.646 50.5272 162.085 56.0887 160.231H152.489C158.05 160.231 161.758 162.085 163.612 167.646L193.273 315.954C195.127 321.515 191.419 325.223 185.858 327.077Z" fill="white"/>
<path d="M59.7964 175.062C56.0887 163.938 61.6502 162.085 67.2118 160.231L169.173 113.885C174.735 113.885 178.443 115.738 180.296 121.3L209.958 269.608" stroke="white" stroke-width="18.5385" stroke-miterlimit="10" stroke-linecap="round" stroke-linejoin="round"/>
<path d="M289.673 499.485L460.227 271.462H352.704C336.019 271.462 319.335 277.023 306.358 290L217.373 369.715L193.273 345.615H89.4579L189.566 445.723C196.981 453.138 206.25 456.846 215.519 456.846C224.789 456.846 232.204 453.138 239.619 447.577L289.673 404.938V499.485V499.485Z" fill="white"/>
<path d="M508.427 282.585L323.043 531H530.673V327.077C530.673 308.538 521.404 293.708 508.427 282.585Z" fill="white"/>
</g>
<defs>
<clipPath id="clip0">
<path d="M0 0H580V580H0V0Z" fill="white"/>
</clipPath>
</defs>
</svg>
